X: 3
T: Paddy Clancy's
R: jig
M: 6/8
L: 1/8
K: Dmaj
f|:afd edB|dcB AFA|dcd ede|fed efg|afd edB|dcB AFA|dcd ede|1 fdc d2f:|2 fdc d2e||faf ~g3|faf {g}fed|faf g2 b|afd e2d|faf ~g3|faf {g}fed|faf ede|1 fdc d2e:|2 fdc d2f||


Tune 832	Setting 13991

